X: 1
T: I Have No Money
T: Donegal Reel
M: 4/4
L: 1/8
R: reel
S: Barry Kerr - The Three Sisters
K: Dmaj
dB|:AFdB ~A3B|AFdA FE~E2|AFdB Ad (3efg|afeg fdeB:|2 afeg fddf||
|:afef d2 (3efg|afed (3efg bg|afef defe|1 dBAG Feed:|2 dBAG FD~D2||
